X:1
T:Title
T:Zigeunermarsch
T:Oskar Rieding (1840-1918)
C:Composer
%%score 1 { 2 | 3 }
L:1/8
Q:1/4=120
M:2/4
K:C
V:1 treble nm="Violine" snm="Vl."
V:2 treble nm="Klavier" snm="Klav."
V:3 bass 
V:1
"^Allegretto" z4 | z2 z!p! (vA/B/ | c)A cA | c(A !>!c)(c/d/ | e)B eB | e(B !>!e)(e/d/ | c)A cA | %7
 c(A !>!c)(c/d/ | e)c dB | c(d/B/ c)(e/d/ | c)A cA | c(A !>!c)(c/d/ | e)B eB | e(B !>!e)(e/d/ | %14
 c)A cA | c(A !>!_B2) | (Ac) (Be) | (c/d/c/B/) A z |:[K:F]!mf! !>!f2 !>!f2 | !>!a2 !>!a2 | %20
 (!>!f/g/a) (!>!a/g/f) | !>!a2 !>!e2 | !>!g2 !>!g2 | !>!=b2 !>!b2 | (!>!g/a/=b) (!>!b/a/g) | %25
 !>!=b2 !>!^f2 | eg !>!^dg | eg !>!^dg | (!>!e/^d/e) (!>!e/d/e) | g2 f2 | DF !>!^CF | DF !>!^CF |1 %32
 D(D !>!E)(E | F)(E/G/ F) z :|2 D(D !>!d)(c || !>!=B)(G/^F/ G) z ||[K:C] z4 | z4 |!p! g2 ef | %39
 g2 ef | (g!0!e) (!1!a!0!e) |!<(! (b!0!e) (c'!0!e)!<)! |!mf! d'2 (c'a) | c'2 (bg) | b2 (af) | %45
!>(! (ag) (^fg)!>)! |!p! g2 ef | g2 ef | (ge) (ae) |!<(! (be) (c'e)!<)! |!mf! b2 ab | d'2 c'a | %52
 (c'e) (gB) | c z z2 |!p! vd2 Ac | Bc d z | e2 Bd | cd e z | (AB) cd |!<(! (cd) e^f!<)! | %60
!mf! a2 g2 |!>(! b2 B2!>)! |!p! d2 Ac | Bc d z | e2 Bd | cd e z | (AB) cd |!<(! (cd) e^f!<)! | %68
!mf! (ag) g^f | g z z2 ||!p! vg2 ef | g2 ef | (ge) (ae) |!<(! (be) (c'e)!<)! |!mf! d'2 (c'a) | %75
 c'2 (bg) | b2 (af) |!>(! (ag) (^fg)!>)! |!p! g2 ef | g2 ef | (ge) (ae) |!<(! (be) (c'e)!<)! | %82
!mf! b2 ab | d'2 c'a | (c'e) (gB) | c(B/d/ c)!p!(A/B/ || c)A cA | c(A !>!c)(c/d/ | e)B eB | %89
 e(B !>!e)(e/d/ | c)A cA | B(B/c/ d)(c/d/ | e)c ec | ^c(c/d/ e)(e | f)a (^f/g/)a | gb (^g/a/)b | %96
 a(!0!e b)(!0!e |!<(! c')(a ^c')(a!<)! |!mf! d')(d d')(c' | b)(b/c'/ d')(b | c')(!0!e c')(b | %101
 a)(a/b/ c')(a | b)(e b)(a | ^g)(g/a/ b)(g |[Q:1/4=110] a)(A/B/ c)(c/B/ | A)(A,/B,/ C)(C/B,/ | %106
[Q:1/4=96] A,) z v[A,Eca] z | vA, z z2 |] %108
V:2
!p! [CEA] [CEA]2 [CEA] | [CEA] [CEA]2 [CEA] | [CEA] [CEA]2 [CEA] | [CEA] [CEA]2 [CEA] | %4
 [DEB] [DEB]2 [D^GB] | [DEB] [DEB]2 [D^GB] | [CEA] [CEA]2 [CEA] | [CEA][CEA] z [C_EA] | %8
 [CEG][CEG] z [B,DF] | [CE] z [CE] z | [CEA] [CEA]2 [CEA] | [CEA] [CEA]2 [CEA] | %12
 [DEB] [DEB]2 [D^GB] | [DEB] [DEB]2 [D^GB] | [CEA] [CEA]2 [CEA] | [CEA][CEA] z [_B,F_B] | %16
 [CEA][CEA] z [DE^G] | [CEA] z [CEA] z |:[K:F]!mf! z [A,DF] z [A,DF] | z [A,DA] z [A,DA] | %20
 z [A,DF] z [A,DF] | z [A,^CE] z [CEA] | z [=B,EG] z [B,EG] | z [=B,E=B] z [B,EB] | %24
 z [=B,EG] z [B,EG] | z [=B,^D^F] z [A,DF] | z [G,CE] z [G,=B,^D] | z [G,CE] z [G,=B,^D] | %28
 z [G,CE] z [G,B,E] | z [F,A,D] z [F,A,D] | z [F,B,D] z [F,A,^C] | z [F,B,D] z [F,A,^C] |1 %32
 z [F,B,D] z [E,B,C] | [F,A,C] z [A,CF] z :|2 z [F,B,D] z [^F,CD] || [G,=B,D] z !>![G,B,DF] z || %36
[K:C]!p! z [G,CE] z [G,CE] | z [G,CE] z [G,CE] | z [G,CE] z [G,CE] | z [G,CE] z [G,CE] | %40
 z [G,CE] z [G,CE] |!<(! z [G,CE] z [G,CE]!<)! |!mf! z [G,DF] z [G,B,F] | z [G,B,F] z [G,B,F] | %44
 z [G,B,F] z [G,B,F] |!>(! z [G,B,F] z [G,B,F]!>)! |!p! z [G,CE] z [G,CE] | z [G,CE] z [G,CE] | %48
 z [G,CE] z [G,CE] |!<(! z [G,CE] z [G,CE]!<)! | z [A,CD] z [A,CD] | z [A,C_E] z [CEA] | %52
 [CEG] z [DFGB] z | [EGc] z z2 |!p! z [CDA] z [CD^F] | z [B,DG] z [B,DF] | z [B,DE] z [B,DE^G] | %57
 z [CEA] z [CEA] | z [CDA] z [C^FA] |!<(! z [CD^F] z [CDF]!<)! |!mf! z [B,DG] z [B,DG] | %61
!>(! z [B,DG] z [B,DG]!>)! |!p! z [CDA] z [CD^F] | z [B,DG] z [B,DF] | z [B,DE] z [B,DE^G] | %65
 z [CEA] z [CEA] | z [CDA] z [C^FA] |!<(! z [CD^F] z [CDF]!<)! |!mf! [B,DG] z [B,DG] z | %69
 [B,DG] z !>![G,B,DF]2 ||!p! z [G,CE] z [G,CE] | z [G,CE] z [G,CE] | z [G,CE] z [G,CE] | %73
!<(! z [G,CE] z [G,CE]!<)! |!mf! z [G,DF] z [G,B,F] | z [G,B,F] z [G,B,F] | z [G,B,F] z [G,B,F] | %77
!>(! z [G,B,F] z [G,B,F]!>)! |!p! z [G,CE] z [G,CE] | z [G,CE] z [G,CE] | z [G,CE] z [G,CE] | %81
!<(! z [G,CE] z [G,CE]!<)! |!mf! z [A,CD] z [A,CD] | z [A,C_E] z [CEA] | [CEG] z [DFGB] z | %85
 [EGc] z [EGc] z ||!p! [EAc] [CEA]2 [CEA] | [CEA] [CEA]2 [CEA] | [DEB][DEB] z [D^GB] | %89
[K:bass] z [^G,B,E] z [E,G,D] | [E,A,C] [E,A,C]2 [E,A,C] | [G,B,D] [G,B,D]2 [G,B,D] | %92
[K:treble] [G,CE] [G,CE]2 [G,CE] | [G,^CE] [G,CE]2 [A,CEG] | z [A,DF] z [B,^D^FA] | %95
 z [B,EG] z [B,E^G] | z [A,EA] z [E^GB] |!<(! z [EAc] z [EA^c]!<)! |!mf! z [DAd] z [DAd] | %99
 z [FAB] z [DAB] | z [EAc] z [EAc] | z [EAc] z [EAc] | z [D^GB] z [DGB] | z [DE^G] z [DEG] | %104
 [CEA] z z2 | [CEA] z z2 |!f! [CEA] z [CEA] z | [CEA] z z2 |] %108
V:3
 [A,,A,]2 [E,,E,]2 | [A,,A,]2 [E,,E,]2 | [A,,A,]2 [E,,E,]2 | [A,,A,]2 [E,,E,]2 | %4
 [^G,,^G,]2 [E,,E,]2 | [^G,,^G,]2 [E,,E,]2 | [A,,A,]2 [E,,E,]2 | [A,,A,]2 [^F,,^F,]2 | %8
 [G,,G,]2 [G,,G,]2 | [C,G,] z [C,G,] z | [A,,A,]2 [E,,E,]2 | [A,,A,]2 [E,,E,]2 | %12
 [^G,,^G,]2 [E,,E,]2 | [^G,,^G,]2 [E,,E,]2 | [A,,A,]2 [E,,E,]2 | [A,,A,]2 [D,,D,]2 | %16
 [E,,E,]2 [E,,E,]2 | [A,,A,] z [A,,A,] z |:[K:F] [D,,D,]2 [D,,D,]2 | [F,,F,]2 [F,,F,]2 | %20
 [D,,D,]2 [D,,D,]2 | [A,,,A,,]2 [A,,A,]2 | [E,,E,]2 [E,,E,]2 | [G,,G,]2 [G,,G,]2 | %24
 [E,,E,]2 [E,,E,]2 | [=B,,,=B,,]2 [B,,,B,,]2 | [C,,C,]2 [G,,,G,,]2 | [C,,C,]2 [G,,,G,,]2 | %28
 [C,,C,]2 [^C,,^C,]2 | [D,,D,]2 [D,,D,]2 | [B,,,B,,]2 [F,,,F,,]2 | [B,,,B,,]2 [F,,,F,,]2 |1 %32
 [B,,,B,,]2 [C,,C,]2 | [F,,,F,,] z [F,,F,] z :|2 [B,,,B,,]2 [_A,,,_A,,]2 || %35
 [G,,,G,,] z !>![G,,,G,,] z ||[K:C] [C,,C,]2 [G,,,G,,]2 | [C,,C,]2 [G,,,G,,]2 | %38
 [C,,C,]2 [G,,,G,,]2 | [C,,C,]2 [G,,,G,,]2 | [C,,C,]2 [G,,,G,,]2 | [C,,C,]2 [G,,,G,,]2 | %42
 [B,,,B,,]2 [G,,,G,,]2 | [D,,D,]2 [G,,,G,,]2 | [D,,D,]2 [G,,,G,,]2 | [D,,D,]2 [G,,,G,,]2 | %46
 [C,,C,]2 [G,,,G,,]2 | [C,,C,]2 [G,,,G,,]2 | [C,,C,]2 [G,,,G,,]2 | [C,,C,]2 [G,,,G,,]2 | %50
 [F,,,F,,]2 [F,,F,]2 | [^F,,^F,]2 [F,,F,]2 | [G,,G,] z [G,,G,] z | %53
!>(! [C,C][B,,B,] [A,,A,][G,,G,]!>)! | [^F,,^F,]2 [D,,D,]2 | [G,,G,]2 [G,,G,]2 | %56
 [^G,,^G,]2 [E,,E,]2 | [A,,A,]2 [A,,A,]2 | [^F,,^F,]2 [D,,D,]2 | [A,,A,]2 [D,,D,]2 | %60
 [G,,G,]2 [D,,D,]2 | [G,,G,]2 [D,,D,]2 | [^F,,^F,]2 [D,,D,]2 | [G,,G,]2 [G,,G,]2 | %64
 [^G,,^G,]2 [E,,E,]2 | [A,,A,]2 [A,,A,]2 | [^F,,^F,]2 [D,,D,]2 | [A,,A,]2 [D,D]2 | %68
 [G,,G,] z [G,,G,] z | [G,,G,] z !>![G,,,G,,]2 || [C,,C,]2 [G,,,G,,]2 | [C,,C,]2 [G,,,G,,]2 | %72
 [C,,C,]2 [G,,,G,,]2 | [C,,C,]2 [G,,,G,,]2 | [B,,,B,,]2 [G,,,G,,]2 | [D,,D,]2 [G,,,G,,]2 | %76
 [D,,D,]2 [G,,,G,,]2 | [D,,D,]2 [G,,,G,,]2 | [C,,C,]2 [G,,,G,,]2 | [C,,C,]2 [G,,,G,,]2 | %80
 [C,,C,]2 [G,,,G,,]2 | [C,,C,]2 [G,,,G,,]2 | [F,,,F,,]2 [F,,F,]2 | [^F,,^F,]2 [F,,F,]2 | %84
 [G,,G,] z [G,,G,] z | [C,C] z [C,C] z || [A,,A,]2 [E,,E,]2 | [A,,A,]2 [E,,E,]2 | %88
 [^G,,^G,]2 [E,,E,]2 | [D,,D,]2 [B,,,B,,]2 | [A,,,A,,]2 [A,,,A,,]2 | [G,,,G,,]2 [G,,,G,,]2 | %92
 [C,,C,]2 [C,,C,]2 | [A,,,A,,]2 [A,,,A,,]2 | [D,,D,]2 [B,,,B,,]2 | [E,,E,]2 [D,,D,]2 | %96
 [C,,C,]2 [B,,,B,,]2 | [A,,,A,,]2 [G,,,G,,]2 | [F,,,F,,]2 [F,,F,]2 | [D,,D,]2 [F,,F,]2 | %100
 [E,,E,]2 [E,,E,]2 | [E,,E,]2 [E,,E,]2 | [E,,E,]2 [E,,E,]2 | [E,,E,]2 [E,,E,]2 | [A,,A,] z z2 | %105
 [A,,A,] z z2 | [A,,A,] z [A,,A,] z | [A,,,A,,] z z2 |] %108

